X:1
T:The Skylark
C:Trad.
D:"Cooley", track 9b
M:4/4
R:reel
F:http://home.hccnet.nl/h.speek/irishbox/Cooley/cooley_cd.abc	 2002-10-24 02:19:38 UT
K:D
fg|: "D"agfg "Em"efdB| "D"A~F3 DFAF| "G"B~G3 EFGE| "D"FAAG FAA2|
agfg "Em"efdB| "D"A~F3 DFAd| "G"B~G3 "A7"G2ag| fgeg "D"fdd2:||:
